P2
64 80
4095
1357 1446 1552 1643 1693 1680 1617 1507 1421 1335 1323 1369 1402 1445 1518 1678 1745 1844 1911 1913 1910 1892 1850 1910 1963 2017 2087 2092 2203 2240 2223 2258 2217 2169 2181 2134 2174 2146 2181 2117 2072 2027 1990 1855 1906 1857 1898 1928 2061 2167 2210 2218 2245 2168 2094 1987 1922 1864 1900 1968 2156 2345 2411 2358 1634 1644 1647 1624 1690 1767 1796 1743 1656 1552 1451 1537 1653 1833 1989 2029 2087 2042 2087 2106 2101 2163 2200 2188 2217 2234 2241 2270 2262 2252 2236 2245 2301 2333 2360 2359 2366 2330 2324 2344 2349 2330 2264 2261 2237 2270 2290 2342 2418 2427 2451 2422 2474 2410 2340 2389 2354 2340 2383 2442 2383 2313 2121 2066 1312 1261 1167 1253 1393 1616 1796 1882 1760 1762 1766 1870 1992 1925 1814 1668 1510 1594 1634 1754 1911 2044 2134 2175 2187 2134 2071 1957 1897 1883 1882 1974 2094 2194 2260 2318 2336 2367 2398 2387 2425 2444 2419 2448 2441 2443 2432 2399 2383 2330 2304 2260 2301 2264 2271 2307 2315 2313 2228 2129 2028 1943 1860 1848 1060 1179 1187 1183 1177 1428 1710 1855 1877 1891 1974 1850 1581 1457 1477 1600 1645 1554 1508 1551 1702 1792 1897 1931 1864 1728 1698 1704 1695 1737 1753 1789 1815 1919 2083 2124 2189 2170 2175 2127 2126 2102 2119 2090 2128 2109 2149 2071 2074 2017 1955 1914 1920 1904 1900 1956 1904 1897 1861 1821 1858 1846 1819 1826 1547 1629 1548 1297 1197 1289 1632 1767 1826 1723 1512 1400 1560 1842 1990 2053 2095 1946 1740 1614 1590 1658 1642 1642 1663 1719 1861 1964 2028 1948 1902 1807 1738 1809 1873 1885 1877 1876 1836 1797 1852 1813 1827 1828 1836 1863 1876 1856 1872 1941 1930 1971 2017 2069 2048 2045 2064 1992 1971 1976 1972 1977 1977 1933 1608 1691 1683 1523 1240 1230 1394 1494 1387 1368 1461 1895 2010 1865 1798 1856 2050 2147 1948 1746 1630 1581 1606 1767 1917 2159 2276 2285 2290 2262 2183 1978 1827 1763 1802 1822 1861 1927 2038 2124 2170 2166 2174 2090 2056 2033 2042 2103 2180 2284 2375 2457 2450 2462 2488 2405 2368 2308 2235 2229 2162 2208 2205 2219 1240 1490 1750 1627 1296 1237 1274 1246 1418 1806 1937 1742 1492 1427 1479 1558 1863 2120 2067 1907 1803 1832 1962 2221 2293 2222 2135 2151 2271 2336 2290 2186 2031 1970 1981 2063 2236 2347 2458 2472 2439 2435 2415 2395 2405 2392 2404 2468 2455 2461 2400 2335 2248 2286 2361 2474 2477 2447 2405 2402 2385 2398 2440 2452 1076 1296 1680 1723 1500 1407 1479 1710 1910 1736 1398 1479 1612 1668 1540 1515 1726 2062 2125 2058 2013 2126 2242 2140 1932 1807 1794 1876 2040 2217 2375 2330 2276 2263 2363 2428 2406 2271 2186 2132 2156 2286 2363 2421 2469 2415 2403 2308 2133 2012 1908 1887 1942 2012 2123 2272 2435 2496 2496 2492 2469 2423 2348 2223 1112 1252 1634 1792 1721 1774 1863 1716 1390 1455 1814 2002 1986 1939 1683 1496 1676 2033 2152 2169 2202 2107 1875 1677 1695 1706 1721 1725 1818 2063 2273 2351 2332 2375 2213 2038 1953 1842 1815 1901 1920 1950 2068 2138 2157 2087 2050 1911 1933 1972 2050 2072 1995 1903 1962 2093 2340 2374 2383 2284 2179 2028 1893 1830 1202 1183 1487 1678 1796 1657 1423 1340 1729 1963 1890 1858 1975 2043 1788 1533 1634 1925 2032 1988 1870 1720 1649 1888 2038 2022 1929 1757 1716 1881 2038 2067 1957 1901 1784 1855 2008 2074 2072 2034 1924 1884 1882 1901 1903 1890 1958 2208 2373 2398 2428 2325 2134 1961 1931 2051 2127 2175 2108 1960 1877 1994 2063 2214 1294 1138 1273 1342 1273 1287 1535 1886 1782 1607 1499 1594 1857 2086 1784 1581 1555 1706 1717 1607 1609 1852 2130 2276 2247 2268 2166 1944 1790 1742 1790 1776 1783 1961 2203 2328 2400 2389 2409 2322 2190 2106 2042 2089 2204 2365 2468 2501 2514 2467 2501 2462 2258 1994 1922 1952 1990 1879 1868 2081 2269 2430 2495 2471 1460 1230 1164 1265 1425 1796 1880 1512 1381 1366 1420 1479 1815 2056 1850 1594 1517 1552 1651 1838 2068 2266 2169 2144 2212 2274 2322 2196 2050 1962 1964 2112 2309 2473 2393 2320 2291 2384 2441 2460 2429 2410 2411 2462 2487 2400 2304 2184 2162 2239 2476 2508 2348 2096 1951 1927 1973 2075 2378 2483 2397 2246 2152 2252 1667 1565 1624 1771 1837 1570 1300 1621 1638 1704 1458 1476 1790 2083 1959 1757 1789 1841 2098 2243 2098 1880 1802 1823 1934 2101 2304 2341 2367 2309 2392 2379 2271 2046 1976 1952 1992 2121 2274 2395 2162 2214 2179 2204 2131 2008 1913 1919 1989 2098 2408 2527 2421 2255 2148 2283 2422 2491 2332 1984 1921 1880 1922 2000 1678 1723 1700 1549 1305 1327 1568 1599 1668 1671 1503 1439 1767 2042 2110 2025 2078 2141 2051 1779 1639 1661 1637 1691 1701 1853 2044 2097 2190 2105 2027 1900 1816 1815 1835 1841 1848 1907 1987 2072 2178 2185 2240 2211 1927 1989 2046 1972 1954 2046 2361 2521 2451 2485 2494 2526 2285 2010 1891 2107 2133 2070 1942 1897 1271 1323 1156 1224 1453 1743 1902 1922 1908 1816 1524 1424 1661 1881 2028 2006 1944 1748 1595 1673 1814 1919 1870 1851 1775 1724 1767 1772 1776 1754 1823 1944 2037 2145 2069 2042 1916 1866 1867 1897 1884 1924 1978 2194 2256 2310 2233 2089 1926 2000 2229 2468 2456 2439 2247 1987 1940 2222 2429 2521 2458 2326 2083 1932 1143 1233 1452 1654 1855 1847 1871 1961 1986 1921 1673 1434 1785 1755 1767 1843 1557 1659 1827 2050 2208 2231 2224 2123 2049 1983 1953 1900 2000 2131 2313 2324 2367 2370 2362 2273 2153 2086 2044 2118 2190 2317 2460 2504 2550 2474 2407 2140 1936 1939 2079 2151 2124 1948 1957 2298 2528 2471 2389 2389 2513 2494 2239 1943 1560 1678 1788 1803 1722 1670 1695 1756 1923 1941 1841 1686 1733 1792 1766 1836 1889 2130 2219 2131 2152 2206 2216 2247 2317 2348 2371 2347 2369 2368 2348 2361 2435 2407 2439 2445 2412 2443 2409 2508 2517 2478 2464 2391 2464 2486 2493 2258 2044 1960 1944 1961 2043 2339 2514 2365 2185 2039 2024 2165 2388 2541 2398 2107 1711 1673 1644 1548 1446 1432 1502 1571 1804 1953 2042 1986 1943 1836 1802 2122 2123 2043 1944 1845 1821 1847 1898 1962 2030 2197 2135 2167 2130 2113 2128 2129 2201 2220 2304 2356 2404 2431 2374 2319 2220 2140 2145 2199 2321 2496 2496 2427 2256 2250 2286 2448 2532 2317 2044 1948 2010 1958 1945 2029 2273 2446 2512 2372 1449 1339 1326 1305 1284 1284 1316 1425 1537 1655 1767 1924 2006 2017 1994 1887 1781 1643 1594 1622 1654 1679 1630 1712 1723 1751 1788 1799 1794 1870 1875 1869 1944 2009 2024 2104 2070 2077 1959 1982 1892 1954 1954 2044 2178 2369 2486 2529 2537 2536 2458 2249 2009 1941 2118 2259 2255 2164 1987 1947 2157 2341 2458 2441 1138 1206 1208 1247 1270 1333 1405 1418 1324 1419 1434 1521 1554 1570 1542 1554 1573 1661 1791 1915 1957 1994 1991 1922 1876 1835 1815 1762 1798 1770 1799 1824 1827 1844 1880 1893 1904 1904 1966 2009 2016 1958 1938 1926 2021 2151 2253 2303 2282 2109 1944 1999 2283 2493 2581 2570 2494 2328 2042 1893 1986 2076 2109 2000 1130 1228 1306 1443 1582 1704 1780 1779 1710 1630 1580 1523 1530 1582 1607 1702 1926 2042 2194 2239 2220 2264 2285 2220 2229 2119 2055 1975 1989 1977 1955 1951 2021 2036 2084 2117 2218 2271 2298 2303 2222 2161 2020 1941 1911 1953 1934 1932 2000 2147 2382 2498 2471 2401 2379 2500 2533 2400 2179 2014 1934 1954 1952 2081 1364 1454 1596 1779 1863 1905 1846 1925 1970 1986 1970 1900 1847 1879 2028 2138 2194 2097 2045 1984 1984 2025 2187 2240 2302 2353 2277 2190 2213 2240 2243 2322 2346 2366 2445 2468 2452 2458 2519 2466 2509 2369 2295 2161 2123 2172 2223 2364 2526 2532 2353 2170 2114 2079 2188 2337 2516 2502 2343 2194 2199 2291 2439 2525 1646 1774 1776 1658 1492 1441 1481 1517 1653 1812 1966 2039 2045 2151 2109 1989 1843 1665 1908 1907 1933 1731 1863 2065 2226 2312 2343 2351 2376 2394 2400 2425 2353 2313 2264 2268 2279 2317 2392 2449 2511 2505 2488 2493 2496 2536 2500 2428 2172 1982 1927 1904 1981 1969 2073 2235 2433 2547 2510 2502 2505 2512 2375 2136 1693 1557 1327 1252 1258 1416 1423 1383 1380 1514 1709 1828 1862 1838 1710 1572 1579 1693 1898 1900 1952 1666 1729 1853 2035 2223 2272 2280 2242 2183 2085 1986 1927 1888 1919 1906 1953 1994 2110 2210 2285 2372 2367 2312 2209 2078 1952 1929 1993 2086 2151 2088 1997 1934 1967 2120 2264 2368 2375 2322 2231 2013 1912 1889 1294 1153 1344 1672 1792 1869 1812 1647 1483 1381 1429 1567 1552 1517 1559 1710 1954 2080 2107 2086 2003 1820 1711 1739 1854 1953 1953 1961 1863 1827 1836 1851 1857 1925 1947 1912 1868 1874 1883 1977 1955 1950 1937 1953 1997 2035 2160 2288 2374 2448 2356 2277 2172 2031 1969 1999 2009 1988 1977 1948 1885 1991 2035 2132 1264 1648 1808 1749 1690 1772 1914 1875 1707 1512 1472 1442 1543 1710 1981 2089 2164 2126 2207 2214 2141 1980 1748 1716 1710 1711 1778 1798 1869 1987 2164 2246 2282 2265 2203 2129 2069 2009 1971 1975 2054 2069 2211 2337 2451 2529 2527 2531 2565 2539 2511 2428 2293 2180 2074 2010 1991 2038 2117 2241 2316 2431 2450 2409 1733 1495 1301 1230 1301 1411 1735 1962 1873 1697 1635 1716 1936 2137 2105 1952 1844 1833 1958 2200 2277 2106 1960 1785 1817 1872 2012 2195 2368 2402 2389 2380 2420 2477 2448 2421 2349 2361 2374 2425 2483 2527 2472 2450 2428 2347 2376 2379 2425 2581 2597 2530 2478 2405 2377 2397 2440 2505 2504 2546 2547 2486 2543 2485 1207 1245 1393 1449 1349 1326 1562 1868 1977 1959 1910 2038 2033 1838 1646 1548 1550 1618 1789 2049 2219 2229 2144 2173 2182 2284 2364 2309 2202 2122 2063 2133 2258 2285 2392 2447 2171 2155 2196 2202 2244 2157 2092 2005 2041 2062 2124 2226 2321 2368 2468 2508 2543 2524 2574 2494 2483 2402 2394 2362 2358 2401 2378 2457 1548 1696 1767 1700 1525 1297 1466 1751 1915 1988 2000 1776 1593 1496 1587 1655 1609 1592 1653 1878 2174 2257 2274 2263 2242 2092 1943 1817 1807 1845 1796 1861 1958 2045 2094 2158 2183 2214 2192 2153 2224 1935 1962 1955 1937 1962 1992 2067 2093 2198 2224 2201 2181 2139 2108 2081 2078 2117 2050 2074 2095 2151 2163 2234 1651 1620 1729 1822 1709 1294 1374 1563 1721 1663 1569 1401 1546 1749 1911 1956 1797 1659 1564 1736 1854 1966 1940 1900 1780 1730 1804 1900 1970 1910 1904 1820 1818 1836 1827 2152 2177 2144 2209 2184 2195 2267 2181 2106 1993 1925 1939 1938 1973 1953 1918 1873 1973 1971 1956 1972 1977 1926 1928 1945 1929 1934 1885 1903 1273 1321 1537 1757 1694 1398 1347 1381 1399 1425 1492 1726 1968 2056 2070 2110 2026 1802 1661 1604 1674 1616 1703 1776 1926 2072 2195 2303 2290 2203 2148 2089 2037 2072 2116 2230 2186 2213 2217 2196 2501 2417 2377 2192 2072 1982 1953 1992 2031 2058 2197 2246 2308 2331 2295 2248 2198 2129 2022 1959 1969 2000 2009 2060 1127 1212 1443 1807 1764 1534 1411 1431 1500 1699 1899 2070 2000 1965 2059 2149 2143 2013 1914 1862 1850 1977 2137 2231 2290 2316 2288 2298 2374 2366 2386 2366 2410 2450 2452 2432 2303 2283 2310 2330 2448 2501 2424 2333 2180 2169 2202 2272 2414 2480 2521 2526 2558 2513 2497 2472 2418 2340 2294 2287 2337 2424 2459 2494 1227 1164 1314 1761 1839 1714 1670 1762 1903 1999 1846 1743 1675 1737 1816 1948 2105 2161 2215 2200 2226 2255 2137 2075 1988 1953 2041 2042 2065 2073 2306 2289 2221 2151 2023 1909 1921 1920 2012 2207 2359 2505 2484 2429 2459 2460 2506 2521 2371 2286 2186 2148 2257 2369 2485 2505 2534 2487 2537 2526 2482 2381 2208 2075 1324 1175 1259 1596 1798 1889 1913 1892 1791 1628 1503 1473 1432 1506 1551 1713 1785 1861 1967 1943 1855 1816 1714 1674 1721 1721 2020 2071 2063 2055 1923 1917 1844 1837 1864 1965 1911 1869 1879 2035 2333 2451 2506 2490 2461 2400 2209 2020 1940 1929 1913 1938 1954 2107 2252 2353 2407 2404 2328 2155 1984 1906 1910 1956 1444 1218 1186 1373 1551 1661 1614 1506 1389 1357 1407 1481 1586 1587 1524 1534 1532 1535 1541 1618 1679 1745 1788 1798 1788 1739 1709 2078 2058 1774 1870 1968 2122 2203 2248 2230 2125 1928 1853 1993 2239 2345 2339 2276 2029 1899 1977 2118 2285 2291 2184 2070 1888 1965 2055 2118 2093 1985 1928 1930 2131 2339 2362 2395 1561 1306 1183 1186 1254 1248 1260 1364 1518 1668 1806 1862 1882 1889 1846 1848 1796 1891 1917 1976 2094 2087 2135 2054 2086 2007 1972 2012 2060 2161 2319 2350 2399 2429 2444 2373 2207 1992 1854 1938 2060 2036 1942 1917 2042 2316 2504 2471 2470 2525 2439 2280 2000 1925 1920 1905 1964 2016 2305 2456 2491 2434 2345 2424 1724 1558 1412 1323 1317 1466 1567 1708 1894 1954 2015 2004 2117 2060 2095 2072 2136 2125 2154 2198 2217 2222 2242 2249 2268 2237 2234 2295 2332 2323 2250 2153 2146 2172 2364 2406 2296 2056 1883 1884 1876 1922 2122 2397 2489 2317 2135 2120 2200 2454 2509 2345 2186 2025 2068 2222 2419 2519 2368 2158 2016 2027 2053 2216 1659 1711 1726 1731 1742 1815 1870 1913 1810 1762 1742 1690 1685 1730 1716 1749 1769 1835 1838 1912 2022 2056 2191 2235 2286 2278 2220 2164 2013 1865 1812 1826 1821 2032 2318 2426 2296 2106 1986 1981 2160 2408 2440 2157 1972 1916 1892 1883 1990 2260 2523 2495 2312 2377 2436 2502 2300 1981 1883 1918 1935 1892 1882 2041 1339 1542 1680 1721 1718 1698 1633 1515 1445 1375 1381 1424 1448 1548 1486 1500 1484 1559 1564 1647 1789 1890 1942 1988 1969 1901 1780 1716 1765 1814 1848 1822 1809 1920 2208 2427 2382 2331 2336 2463 2393 2119 1916 2016 2185 2268 2174 1983 1911 2158 2413 2486 2484 2481 2230 1975 1932 2060 2221 2298 2192 1976 1886 1982 1116 1206 1276 1329 1293 1311 1292 1269 1360 1473 1610 1722 1804 1816 1855 1793 1698 1656 1555 1579 1581 1666 1714 1685 1683 1724 1852 1975 2147 2179 2106 1959 1796 1872 2133 2333 2442 2407 2330 2072 1816 2065 2363 2495 2460 2460 2392 2090 1890 1986 2184 2265 2168 1977 1893 2166 2421 2492 2452 2453 2310 2036 1858 1911 1173 1173 1136 1188 1209 1299 1464 1619 1843 1904 1956 2007 2039 2056 2046 2033 1959 1815 1733 1652 1609 1629 1673 1766 1915 2149 2248 2340 2350 2336 2314 2061 1862 1824 1986 2140 2110 1930 1827 2019 2360 2400 2280 2182 2261 2413 2439 2168 1906 1921 1973 1919 1922 2082 2388 2456 2320 2245 2322 2459 2372 2076 1880 1885 1565 1552 1467 1503 1648 1723 1848 1893 1776 1713 1595 1583 1660 1781 1956 2063 2064 2009 1883 1817 1872 1930 2052 2208 2226 2283 2143 2080 2174 2273 2322 2182 1914 1792 1846 1771 1813 1997 2322 2420 2091 1878 1844 1847 2022 2347 2485 2288 2004 1939 1971 2174 2404 2448 2220 2014 1959 1985 2150 2421 2425 2128 1975 1875 1639 1675 1711 1762 1796 1728 1584 1374 1300 1296 1351 1356 1409 1587 1762 1965 2106 2135 2091 2081 2154 2182 1900 1951 1899 1791 1779 1814 1995 2169 2333 2297 2080 2006 2011 2160 2374 2383 2024 1849 1897 2009 1964 1839 1992 2292 2469 2398 2322 2318 2450 2441 2221 1945 1908 1890 1807 1888 2117 2370 2429 2268 2156 2161 1413 1509 1534 1520 1414 1277 1238 1360 1505 1534 1568 1507 1444 1445 1613 1842 2011 2045 2107 2077 1958 1908 1891 1930 1956 1641 1655 1701 1835 2024 2294 2347 2346 2365 2382 2313 2029 1815 1909 2245 2287 2274 2141 1921 1849 2121 2388 2441 2143 2143 2179 1924 1862 2039 2143 2116 1941 1864 2055 2326 2498 2447 2442 2409 1135 1138 1134 1143 1183 1361 1636 1753 1848 1871 1836 1688 1501 1409 1502 1637 1747 1776 1716 1646 1576 1933 1894 1919 1952 1851 1857 1679 1660 1797 1984 2103 2145 2056 1884 1760 1981 2236 2365 2447 2367 2395 2212 1985 1809 1979 2170 2182 2158 2160 2191 2188 2274 2342 2346 2267 1991 1872 1922 2121 2264 2236 2108 1918 1080 1111 1254 1410 1665 1818 1815 1753 1820 1888 1908 1815 1626 1489 1443 1482 1483 1479 1503 1642 1829 1968 2087 2184 2116 2132 2050 1886 1750 1714 1700 1729 1739 1826 1968 2278 2401 2308 2278 2242 2312 2442 2343 2027 1858 1856 1863 2139 2127 2144 2142 2113 2459 2442 2488 2369 2117 1903 1842 1897 1848 1807 1840 1975 1435 1504 1676 1707 1624 1535 1473 1487 1552 1721 1901 1901 1776 1593 1526 1574 1677 1784 1951 2108 2122 2154 2165 2152 2206 2266 2188 2083 2060 1987 2013 2076 2251 2315 2367 2184 2043 1942 1936 2029 2238 2400 2393 2218 2039 1970 2026 2097 2133 2137 2112 2274 2293 2298 2399 2442 2242 2082 1973 1918 1982 2176 2326 2353 1623 1583 1507 1339 1218 1132 1184 1322 1411 1632 1841 1928 1923 1904 1911 1972 2063 2044 1988 1899 1873 1802 1843 1924 2053 2101 2176 2233 2270 2276 2251 2234 2164 1985 1889 1806 1804 1798 1832 1883 2053 2301 2396 2462 2390 2358 2379 2403 2343 2235 2107 2042 2065 2075 2284 2434 2399 2387 2287 2374 2404 2376 2181 1942 1327 1174 1076 1123 1214 1269 1248 1192 1298 1461 1713 1844 1910 1928 1939 1883 1772 1626 1574 1588 1536 1553 1632 1625 1753 1922 1953 1964 1900 1840 1816 1768 1717 1707 1752 1779 1797 1808 1745 1816 1870 2010 2152 2272 2327 2302 2217 2147 1955 1916 1843 1831 1807 1949 2027 2137 2253 2258 2323 2153 1986 1861 1824 1792 1045 1069 1309 1470 1493 1445 1358 1281 1218 1337 1438 1526 1522 1497 1442 1433 1424 1548 1542 1545 1587 1569 1581 1568 1562 1906 1906 1925 1709 1745 1806 1820 1858 1915 1916 1920 1910 1857 1831 1797 1739 1753 1820 1851 1860 1830 1867 1813 1785 1858 1838 1898 1835 1816 1803 1808 1837 1797 1824 1777 1826 1970 2038 2085 1364 1483 1611 1659 1645 1628 1501 1390 1278 1242 1270 1311 1369 1492 1628 1718 1791 1865 1860 1878 1833 1812 1840 1911 1888 1989 2091 2131 2175 2148 2196 2158 2155 2155 2122 2126 2098 2095 2089 2057 2054 2046 2076 2063 2056 1881 1892 1933 2006 2071 2126 2140 2138 2087 2046 2018 2000 2022 2081 2157 2248 2309 2340 2333 1533 1589 1608 1650 1671 1712 1716 1586 1531 1535 1603 1716 1847 1974 1939 1991 1955 2043 2032 2052 2072 2081 2132 2141 2171 2163 2095 2079 2130 2221 2218 2283 2277 2242 2270 2264 2323 2328 2332 2327 2020 2060 2078 2103 2046 2178 2156 2247 2301 2336 2328 2386 2408 2370 2407 2382 2376 2421 2377 2364 2319 2294 2320 2276 1358 1351 1354 1456 1611 1687 1744 1746 1837 1827 1804 1794 1743 1704 1760 1765 1887 1863 2005 1982 2011 1938 1854 1752 1636 1610 1625 1659 1838 1988 2169 2206 2305 2264 2307 2266 2266 2172 2074 2075 2091 2068 2041 2006 2066 2354 2321 2358 2355 2300 2189 2133 2066 2073 2063 2073 2105 2119 2134 2072 2046 2002 2003 1979 988 1072 1127 1231 1291 1416 1494 1500 1431 1412 1337 1328 1304 1313 1387 1494 1579 1621 1724 1661 1575 1478 1526 1592 1641 1659 1632 1582 1655 1836 2034 2143 2196 2167 2079 1933 1775 1708 1711 1699 1787 1919 2072 2207 2249 2303 2269 2137 1979 1825 1791 1782 1810 1784 1737 1795 1819 1805 1813 1838 1774 1780 1746 1764 931 1008 996 1057 1087 1097 1133 1181 1199 1249 1387 1401 1423 1368 1335 1358 1374 1423 1419 1454 1557 1810 1969 2055 2115 2022 1818 1636 1651 1767 1946 2025 1978 1830 1674 1720 1821 1928 1947 1851 1791 1721 1767 1943 1988 1971 1842 1762 1766 1918 2098 2056 2029 2126 2029 1892 1842 1773 1787 1732 1776 1765 1817 1875 1130 1168 1120 1163 1224 1309 1413 1580 1673 1738 1771 1785 1719 1580 1477 1430 1440 1489 1661 1844 2005 2016 2012 1982 2094 2120 1915 1666 1581 1725 1788 1738 1637 1693 1921 2169 2258 2268 2302 2152 2002 1765 1732 1750 1757 1729 1832 2025 2239 2327 2067 2075 2080 2012 2274 2173 1982 1968 1906 1941 1964 2050 2171 2181 1445 1435 1507 1560 1624 1667 1631 1611 1652 1721 1748 1801 1854 1776 1736 1646 1726 1927 2003 1902 1708 1626 1568 1680 1901 2109 1988 1669 1563 1640 1577 1616 1947 2206 2171 2020 1899 1971 2142 2313 2152 1948 1788 1740 1865 2059 2293 2280 2078 1884 2061 2035 2019 2046 2309 2305 2186 2168 2170 2251 2295 2316 2319 2240 1439 1514 1455 1410 1301 1228 1157 1191 1286 1332 1469 1686 1818 1886 1892 1937 1883 1800 1556 1421 1444 1486 1449 1512 1856 2128 1918 1734 1597 1647 1836 2124 2099 1828 1627 1622 1617 1642 1876 2214 2257 2122 2060 2091 2272 2293 2001 1793 1734 1770 1787 1730 1786 2015 2240 2324 2312 2280 2270 2229 2148 1999 1911 1970 1055 1030 966 1019 980 1080 1151 1180 1160 1172 1290 1506 1698 1735 1734 1619 1426 1351 1485 1659 1747 1704 1573 1438 1813 2096 2023 1833 1870 2027 2139 1854 1590 1745 1873 1981 1843 1653 1758 2073 2246 2289 2253 2249 2044 1723 1759 2047 2158 2173 2034 1784 1672 1919 2147 2216 2219 2189 2036 1863 1727 1650 1655 1675 896 1024 1220 1351 1457 1552 1536 1420 1214 1158 1189 1274 1433 1408 1318 1307 1472 1708 1921 1917 2004 1886 1527 1489 1792 2089 2063 2140 2093 1940 1855 1850 1863 2173 2224 2184 2118 1731 1648 1943 2121 2181 2044 1747 1734 2014 2247 2283 2248 2283 2210 1861 1692 1808 1968 1977 1898 1813 1711 1720 1850 1847 1797 1725 1398 1477 1543 1487 1560 1623 1610 1631 1420 1231 1140 1186 1217 1237 1398 1712 1928 1907 1798 1862 1953 1930 1600 1466 1707 1935 2005 1907 1627 1819 1858 1798 1863 1849 1887 2088 2163 1783 1646 1741 1818 1687 1629 1908 2253 2178 1979 1917 2053 2197 2220 1896 1671 1707 1699 1706 1654 1741 1924 2119 2174 2216 2062 1973 1253 1160 1115 1205 1209 1396 1601 1612 1577 1396 1297 1363 1467 1671 1823 1742 1546 1408 1481 1635 1897 1926 1601 1437 1520 1589 1537 1488 1828 1798 1851 1848 1870 1883 1635 1995 2156 1955 1693 1619 1639 1747 2150 1978 1920 1940 1640 1687 1851 2164 2225 1987 1728 1646 1660 1796 2016 2243 2255 2263 2164 2204 2205 2151 845 893 917 926 1087 1223 1467 1658 1676 1639 1670 1746 1774 1656 1450 1284 1251 1258 1381 1538 1891 1894 1679 1483 1445 1531 1733 2037 1873 1540 1783 1763 1811 1595 1570 1879 2173 2077 1836 1860 2056 2218 1988 1900 1921 1926 1706 1628 1764 2098 2230 2141 1920 1997 2083 2206 2208 2034 1897 1837 1867 1991 2070 2164 1009 1050 955 935 986 1121 1298 1521 1622 1680 1653 1515 1359 1218 1223 1358 1347 1368 1279 1451 1794 1928 1853 1790 1829 1978 1886 1533 1542 1844 2038 2102 2000 1733 1527 1785 2113 2157 2187 2185 2088 1711 1625 1834 1943 2013 1855 1711 1707 2026 2211 2222 2229 2217 2207 1954 1735 1655 1578 1564 1589 1712 1746 1839 1306 1276 1100 1010 956 1003 1134 1198 1256 1201 1180 1150 1242 1361 1532 1630 1583 1445 1284 1346 1608 1813 1911 1908 1791 1521 1407 1744 2042 2040 2039 2050 2090 1737 1543 1661 1953 2096 1964 1770 1577 1749 1968 2142 2168 2150 1929 1921 1909 1863 2048 2114 2037 1844 1713 1599 1717 1810 1851 1735 1660 1597 1578 1554 1389 1376 1265 1076 976 975 967 1018 1033 1122 1251 1436 1569 1743 1778 1757 1719 1576 1392 1267 1316 1411 1418 1359 1423 1655 1967 1970 1751 1674 1799 1890 2073 1908 1547 1533 1594 1575 1508 1649 1941 2155 2144 2138 2144 1876 1871 1908 1916 1903 1689 1659 1596 1653 1804 1980 2090 2156 2124 2054 2010 1893 1887 1853 1322 1384 1363 1267 1214 1176 1263 1271 1427 1572 1651 1663 1689 1673 1680 1753 1818 1731 1578 1478 1425 1434 1531 1674 1964 1933 1728 1522 1444 1472 1613 1831 2050 1969 1711 1572 1604 1693 1860 2089 2128 2007 1860 1855 2027 2197 1881 1853 1901 1632 1663 1743 1898 2062 2162 2139 2128 2085 2105 2127 2160 2173 2177 2102 1294 1375 1417 1456 1444 1496 1513 1501 1539 1503 1441 1390 1384 1420 1453 1570 1687 1773 1832 1862 1810 1877 1902 1751 1599 1400 1328 1406 1443 1399 1466 1740 1968 2061 2046 1928 1980 2052 2110 1964 1748 1655 1602 1727 1803 2069 2153 2125 2034 2039 2014 2165 2125 2023 1860 1781 1744 1764 1834 1857 1858 1874 1830 1738 1058 1207 1240 1307 1296 1215 1162 1140 1062 1069 1065 1108 1119 1173 1239 1322 1379 1457 1541 1557 1571 1476 1446 1347 1292 1388 1503 1501 1552 1466 1414 1499 1723 1921 2048 2007 1999 1950 1714 1610 1497 1512 1532 1526 1630 1746 1954 2050 2101 2064 2023 1853 1665 1580 1559 1512 1526 1521 1525 1527 1531 1523 1490 1497 809 874 869 858 828 862 903 963 982 959 1044 1058 1071 1098 1159 1141 1152 1161 1213 1206 1220 1267 1390 1424 1554 1650 1698 1730 1704 1601 1433 1344 1418 1582 1635 1671 1577 1523 1483 1515 1569 1605 1602 1516 1493 1506 1533 1601 1629 1647 1590 1533 1571 1643 1675 1767 1761 1750 1763 1713 1712 1755 1743 1759 707 777 884 1048 1138 1200 1261 1231 1227 1204 1235 1245 1256 1324 1417 1514 1521 1581 1570 1594 1625 1629 1688 1736 1734 1835 1876 1889 1894 1808 1722 1579 1439 1421 1452 1410 1468 1532 1607 1772 1856 1893 1894 1878 1704 1710 1610 1597 1567 1625 1708 1835 1911 1992 2025 2061 2050 2058 2055 2042 2076 2040 2067 1989 1119 1266 1334 1390 1401 1414 1456 1446 1476 1460 1423 1531 1599 1626 1643 1653 1661 1633 1702 1715 1784 1817 1807 1826 1865 1908 1885 1880 1929 1944 1950 1869 1780 1685 1660 1623 1726 1795 1955 2045 2066 2057 2064 2060 2061 2032 2039 2003 2018 2035 2071 2059 2091 2071 1997 1944 1974 1924 1988 1969 2009 2000 2024 2081 1241 1084 1013 997 1047 1170 1311 1435 1500 1489 1521 1484 1393 1194 1195 1108 1156 1196 1301 1478 1669 1760 1801 1758 1781 1705 1622 1578 1640 1678 1845 1926 1990 1962 1918 1945 1963 2023 1981 1887 1778 1718 1692 1724 1804 1868 1976 1995 2024 2034 1967 1893 1764 1718 1646 1563 1513 1541 1614 1612 1729 1792 1893 2012 655 689 723 716 787 893 1069 1201 1273 1224 1138 1040 979 1071 1165 1234 1180 1117 1141 1280 1463 1604 1614 1604 1438 1344 1298 1315 1258 1322 1428 1624 1794 1911 1971 1941 1885 1768 1571 1494 1413 1422 1449 1409 1412 1489 1592 1633 1677 1644 1597 1523 1468 1430 1462 1473 1445 1428 1479 1457 1512 1606 1725 1772 935 1017 989 879 798 725 853 954 903 869 980 1162 1385 1537 1573 1567 1433 1205 1040 1198 1312 1416 1359 1289 1183 1245 1439 1482 1510 1390 1281 1324 1506 1595 1704 1631 1510 1403 1446 1587 1737 1777 1813 1696 1587 1445 1449 1430 1431 1399 1380 1489 1592 1670 1790 1751 1778 1648 1571 1462 1410 1435 1466 1585 1194 1224 1206 1112 919 779 807 837 950 1203 1463 1490 1393 1382 1435 1589 1539 1261 1058 1077 1129 1166 1181 1266 1518 1713 1784 1843 1799 1663 1436 1340 1328 1381 1304 1322 1393 1690 1875 1976 1940 1995 2003 1987 1867 1686 1569 1498 1501 1589 1690 1837 1997 1955 1996 1983 1988 1852 1761 1554 1423 1412 1381 1356 907 1082 1245 1205 1117 1019 1019 1171 1374 1382 1208 957 956 984 1177 1520 1612 1271 1071 1045 1071 1231 1442 1727 1721 1599 1555 1611 1736 1859 1664 1409 1296 1318 1379 1590 1866 1930 1738 1531 1489 1555 1730 1910 1972 1908 1790 1738 1813 1918 1978 1989 1898 1834 1837 1917 1950 1991 1847 1673 1602 1550 1564 1591 630 855 1091 1255 1266 1307 1352 1313 1042 838 874 952 970 943 1094 1428 1532 1313 1155 1200 1354 1610 1695 1436 1189 1199 1238 1274 1571 1762 1774 1601 1567 1640 1801 1884 1606 1381 1311 1365 1362 1328 1430 1703 1926 1952 1935 1942 1939 1905 1774 1617 1521 1519 1539 1651 1828 1935 1942 1943 1927 1900 1952 1934 527 696 988 1160 1201 1143 982 727 861 1117 1235 1285 1158 910 1017 1477 1540 1390 1374 1554 1656 1426 1136 1095 1386 1371 1248 1186 1378 1674 1838 1781 1857 1839 1586 1299 1277 1544 1702 1708 1588 1367 1362 1508 1697 1833 1847 1771 1598 1513 1362 1353 1359 1344 1376 1445 1625 1736 1842 1893 1872 1798 1619 1497 547 604 736 804 759 691 763 1091 1299 1386 1429 1426 1224 911 1032 1420 1577 1553 1553 1465 1103 1109 1466 1671 1674 1679 1520 1218 1206 1442 1665 1679 1552 1304 1269 1512 1813 1895 1892 1863 1739 1477 1295 1369 1504 1580 1474 1405 1318 1403 1453 1539 1458 1435 1358 1346 1393 1434 1442 1435 1404 1277 1316 1370
