P2
64 80
4095
1539 1629 1711 1734 1662 1705 1689 1708 1814 1901 1723 1542 1413 1423 1395 1448 1467 1594 1726 1865 1944 2048 2029 2035 2076 2061 2140 2153 2132 2096 2043 1871 1780 1747 1770 1799 1794 1797 1848 2018 2213 2308 2363 2373 2401 2379 2341 2288 2231 2277 2289 2291 2265 2269 2184 2115 2044 2017 1996 2042 2181 2355 2372 2404 1461 1400 1349 1272 1319 1316 1368 1499 1708 1865 1900 1784 1623 1491 1528 1694 1800 1967 2102 2136 2133 2151 2183 2170 2230 2268 2237 2264 2315 2306 2258 2119 2027 1927 1875 1875 2012 2160 2362 2337 2285 2210 2125 2174 2274 2365 2416 2482 2450 2486 2446 2434 2429 2454 2418 2362 2314 2329 2376 2410 2444 2311 2159 2106 1050 1082 1100 1149 1132 1188 1236 1321 1557 1801 1950 1895 1825 1813 1928 1997 2021 1996 1909 1856 1817 1870 1945 1980 2056 2124 2157 2165 2230 2292 2315 2351 2352 2298 2367 2343 2358 2307 2087 1902 1839 1812 1845 1860 1950 2112 2206 2353 2403 2434 2463 2456 2396 2487 2450 2464 2438 2430 2283 2199 2026 1912 1841 1860 1302 1314 1352 1389 1366 1321 1226 1266 1421 1684 1890 1956 2010 1969 2067 1928 1753 1603 1543 1542 1558 1651 1656 1698 1793 1838 1903 1971 1968 2015 2091 2101 2181 2213 2151 2031 1917 1832 1878 1988 2061 2087 2009 1896 1860 1910 2029 2109 2230 2262 2253 2240 2253 2254 2158 2172 2144 2043 1909 1843 1889 1907 1960 1912 1602 1631 1603 1601 1582 1497 1343 1287 1351 1566 1754 1812 1872 1762 1616 1483 1481 1648 1712 1739 1756 1682 1611 1692 1644 1670 1663 1730 1747 1743 1756 1724 1768 1783 1799 1879 1977 2157 2319 2411 2413 2379 2219 2112 1911 1919 1935 2026 2086 2095 2001 1978 1908 1897 1899 1881 1835 1877 2010 2175 2210 2268 2240 2194 1721 1700 1695 1708 1706 1644 1519 1347 1300 1352 1470 1498 1461 1460 1513 1733 1948 2078 2074 2101 2003 1974 1869 1781 1763 1792 1863 1939 1980 1984 2023 2045 2087 2146 2205 2335 2385 2400 2318 2354 2398 2469 2389 2172 1953 1872 1890 1937 1873 1869 1900 1891 1957 2079 2115 2220 2299 2330 2486 2453 2452 2479 2429 2386 1637 1684 1716 1772 1812 1839 1738 1570 1449 1416 1372 1448 1578 1759 1988 2102 2039 2013 2049 2138 2174 2200 2121 2125 2175 2220 2284 2308 2330 2329 2366 2375 2368 2393 2343 2254 2210 2106 2094 2155 2240 2403 2438 2250 2100 1943 1898 1906 1979 2072 2170 2349 2448 2454 2465 2489 2456 2370 2331 2259 2261 2264 2324 2423 1472 1571 1558 1602 1724 1803 1859 1827 1730 1715 1735 1893 2043 1992 1877 1713 1681 1689 1778 1951 2115 2125 2203 2249 2198 2166 2067 1992 1957 1997 2024 2012 2066 2068 2024 1910 1915 1887 1877 1964 2156 2393 2440 2369 2257 2145 2157 2225 2370 2459 2507 2459 2301 2229 2146 2119 2057 2031 1966 1923 1926 1974 2062 2274 1242 1286 1243 1320 1408 1580 1717 1872 1924 1934 1991 1885 1717 1526 1469 1497 1537 1586 1539 1693 1824 1861 1870 1859 1788 1659 1721 1773 1708 1734 1762 1769 1837 1800 1818 1819 1842 1834 1822 1901 2052 2323 2432 2472 2450 2439 2498 2503 2399 2191 2035 1946 1902 1915 1914 1913 1917 1897 1929 1900 1927 1888 1883 1939 1095 1110 1173 1254 1249 1259 1340 1530 1632 1663 1580 1420 1442 1638 1759 1843 1824 1751 1649 1578 1578 1605 1613 1720 1818 1949 2123 2125 2064 2007 1904 1905 1836 1832 1842 1894 1968 1917 1898 1859 1943 2147 2336 2422 2369 2359 2240 1980 1903 1943 2083 2136 2204 2204 2195 2181 2162 2208 2210 2199 2173 2032 1938 1845 1328 1504 1563 1576 1489 1372 1282 1282 1333 1370 1468 1664 1897 2081 2083 2132 2079 2019 1846 1779 1786 1911 2020 2186 2293 2296 2354 2338 2365 2253 2163 2094 2028 2063 2086 2137 2153 2156 2025 1918 1872 1952 2210 2022 2002 1894 1926 2131 2388 2494 2513 2507 2518 2509 2542 2436 2480 2489 2450 2505 2459 2384 2282 2142 1720 1704 1749 1780 1851 1709 1600 1567 1571 1687 1951 2019 1964 1941 1875 2015 2099 2175 2168 2120 2176 2225 2241 1945 2036 2015 2044 2166 2332 2371 2274 2195 2221 2235 2307 2373 2343 2429 2344 2136 1975 2158 2198 2190 2246 2302 2509 2495 2348 2243 2224 2273 2367 2442 2473 2480 2453 2425 2393 2410 2444 2508 2528 2455 1262 1239 1316 1469 1699 1828 1864 1893 1971 1978 1834 1693 1599 1536 1597 1747 1907 2004 2117 2121 2069 1966 1944 1974 2008 2001 2033 2003 2241 2338 2331 2377 2372 2419 2429 2391 2365 2440 2489 2477 2373 2187 2193 2229 2290 2364 2138 1953 1924 1943 1962 2046 2081 2229 2229 2219 2126 2051 2060 2083 2119 2254 2387 2457 1277 1263 1152 1240 1381 1648 1760 1786 1767 1569 1438 1441 1472 1508 1489 1539 1615 1793 1809 1777 1682 1649 1963 1942 1997 2039 2015 1923 2198 2348 2375 2403 2373 2240 2121 2057 2049 2134 2224 2369 2441 2431 2382 2193 1980 1922 2000 2103 2140 2063 1996 2238 2224 2247 2248 2219 1954 1960 1942 1913 1905 1959 2112 2238 1708 1658 1496 1249 1265 1380 1473 1465 1374 1405 1553 1717 1784 1776 1674 1558 1622 1560 1607 1641 1803 1974 2097 2127 1986 1867 1722 1859 2114 2233 2211 2151 1947 1843 1824 1896 1895 1852 1917 1942 1977 1928 1912 1927 2091 2302 2455 2418 2378 2286 2094 2240 2217 2232 2221 2263 2128 2202 2203 2160 1960 1944 1926 2058 1577 1764 1732 1435 1261 1252 1318 1354 1502 1802 1966 2032 2031 2045 1943 1855 1747 1773 1871 2114 2205 2282 2226 2286 2185 1928 1758 1813 1891 1944 1861 1832 1931 2150 2285 2345 2372 2224 2059 2042 2010 2088 2270 2413 2493 2489 2492 2539 2491 2469 2270 2152 2120 2207 2230 2367 2476 2526 2515 2423 2293 2092 1888 1875 1332 1593 1784 1534 1408 1384 1477 1706 1882 1984 1950 1933 1992 2055 2140 2055 2103 2159 2167 2169 2095 2046 2171 2279 2281 1994 1817 1772 1799 1800 1956 2249 2411 2397 2352 2323 2380 2458 2468 2423 2486 2512 2531 2418 2307 2234 2275 2417 2497 2553 2458 2384 2432 2479 2499 2455 2364 2342 2398 2490 2501 2216 2072 1987 1168 1579 1777 1675 1625 1733 1845 1956 1806 1631 1616 1634 1742 1931 2041 2118 2096 2058 1986 1837 1795 1788 1964 2187 2321 2170 2031 1926 2115 2266 2351 2237 1970 1834 1851 1925 2029 2232 2372 2414 2439 2294 2187 2075 2027 2000 2160 2253 2464 2533 2554 2547 2518 2378 2176 2027 2008 2042 2185 2439 2488 2408 2285 2226 1171 1610 1779 1759 1808 1911 1799 1582 1371 1379 1448 1400 1494 1624 1768 1848 1837 1901 1655 1612 1657 1679 1777 2058 2297 2337 2282 2351 2372 2104 1830 1914 2034 2115 2086 1903 1891 1966 2104 2133 2103 1994 1944 1914 1895 1921 1998 2111 2290 2367 2393 2246 2108 1931 1986 2025 2035 1944 1984 2297 2437 2505 2517 2508 1192 1577 1756 1766 1765 1534 1339 1386 1574 1731 1687 1601 1473 1501 1798 1842 1858 1850 1908 1857 1884 1671 1695 1871 2109 2230 2188 2034 1744 1893 2237 2427 2439 2434 2373 2126 1924 1903 1924 1934 1895 1919 1969 2080 2053 1933 1940 1944 2071 2069 1968 1964 2104 2284 2384 2429 2278 2069 1953 2094 2317 2402 2415 2277 1207 1509 1602 1548 1320 1308 1613 1819 1962 1993 1995 1856 1741 1647 1647 1827 1910 1917 1924 2159 2127 1908 1745 1728 1750 1797 1743 1874 2241 2396 2243 2145 2193 2343 2454 2242 2010 1899 1918 1945 2034 2152 2311 2302 2234 2117 2008 1937 1956 2030 2153 2408 2521 2481 2525 2548 2525 2231 1977 1979 2088 2146 2016 1919 1185 1295 1263 1257 1465 1833 1874 1825 1759 1852 2030 2033 1984 1976 2041 2105 2148 2102 2137 2235 2264 2155 1937 1860 1832 1989 2253 2333 2144 1847 1826 1831 1948 2231 2445 2346 2120 2022 2075 2249 2345 2464 2530 2499 2475 2371 2277 2272 2337 2479 2549 2416 2228 2148 2161 2386 2533 2347 2071 1904 1904 1965 2089 2322 1135 1149 1347 1711 1826 1614 1408 1430 1435 1578 1795 1962 2046 2079 2026 1923 1791 1731 1804 1917 2125 2264 2294 2205 2287 2347 2080 1803 1797 1950 1963 1834 1869 2221 2442 2416 2263 2257 2385 2464 2526 2404 2412 2420 2533 2535 2515 2531 2490 2342 2089 1941 1943 1957 1961 2183 2488 2493 2228 2153 2179 2388 2528 2348 1408 1595 1804 1610 1317 1316 1406 1443 1416 1406 1559 1718 1790 1703 1567 1564 1592 1608 1620 1674 1860 2042 2111 2110 2014 1794 1754 2096 2096 2085 2112 1934 1875 2274 2474 2444 2453 2449 2455 2317 2178 2099 2013 2129 2268 2254 2293 2109 2011 1966 2085 2211 2235 2125 1938 2081 2414 2542 2506 2489 2523 2366 2019 1871 1746 1583 1270 1273 1563 1761 1852 1762 1567 1445 1390 1427 1485 1561 1683 1800 1933 1896 1801 1664 1641 1714 1745 1713 1728 1938 2070 2041 2055 2091 2122 2148 1913 2216 2407 2452 2425 2281 2039 1885 1927 1956 1934 1935 1939 1967 1916 2032 2166 2421 2508 2549 2479 2341 2069 1992 2289 2443 2481 2293 2085 1926 2131 2369 1211 1221 1527 1818 1835 1810 1929 1966 1798 1626 1532 1638 1752 1932 2068 2145 2158 2190 2127 1940 1765 1687 1756 1946 2202 2332 2321 2061 2088 2073 2090 1874 1913 2166 2274 2219 1978 1872 2007 2207 2373 2422 2326 2271 2196 2224 2357 2488 2494 2478 2345 2420 2513 2458 2162 1958 2050 2092 2016 1928 2093 2432 2516 2408 1494 1759 1657 1492 1409 1532 1689 1914 1931 1893 1938 2005 2108 2061 1878 1857 1942 2093 2196 2165 2066 2093 2196 2281 2256 2097 2029 2092 2097 2108 2181 1796 1849 1962 1892 1837 2025 2358 2501 2476 2419 2470 2512 2541 2554 2553 2516 2322 2113 2034 2037 2197 2426 2537 2219 1987 1913 1941 2089 2390 2529 2286 2073 2091 1574 1322 1231 1268 1257 1319 1503 1781 1903 1985 2029 1850 1696 1545 1526 1518 1606 1847 2094 2207 2266 2281 2232 2136 1938 1852 1856 1918 2248 2416 2155 1959 1869 1918 2105 2348 2449 2245 2074 1953 2023 2077 2243 2271 2300 2197 2041 1944 1922 1939 1920 2037 2348 2523 2406 2222 2244 2313 2560 2395 2084 1920 1868 1907 1148 1270 1435 1466 1396 1308 1327 1581 1640 1648 1514 1468 1538 1569 1712 1611 1561 1670 1877 2072 2093 2009 1907 1764 1741 1705 1755 1822 2135 2407 2361 2223 2255 2389 2402 2105 1878 1922 2019 2042 1945 1883 1962 1930 1973 1917 1988 2101 2196 2180 1986 1925 2252 2497 2535 2489 2543 2449 2165 1941 2007 2099 2036 1920 1497 1717 1747 1692 1554 1358 1314 1339 1399 1415 1529 1772 1906 2030 1932 1825 1647 1551 1669 1820 1792 1721 1685 1736 1854 1791 1755 1786 2025 2229 2385 2370 2271 2037 1831 2041 2333 2397 2438 2366 2203 2042 1952 1981 2052 2210 2375 2403 2472 2354 2097 1915 2094 2324 2431 2351 2214 1977 1982 2229 2297 2301 2156 1969 1697 1717 1782 1808 1685 1515 1417 1405 1594 1800 1968 2061 2023 2095 2118 1992 1766 1591 1585 1636 1649 1720 1851 2013 2080 2084 1912 1797 1752 1914 1952 1877 1865 2087 2374 2407 2373 2347 2483 2504 2413 2328 2196 2273 2410 2515 2541 2493 2536 2482 2244 1970 1980 2069 2097 1957 1945 2162 2461 2549 2525 2483 2321 2080 1553 1574 1691 1835 1811 1766 1761 1877 1972 1909 1823 1732 1717 1903 2066 2122 1895 1716 1676 1750 1872 2051 2209 2254 2326 2296 2233 2006 1875 1869 1960 2177 2390 2365 2089 1957 1952 2030 2225 2479 2475 2516 2452 2526 2496 2357 2317 2279 2448 2508 2432 2125 1975 1909 1973 2159 2450 2518 2472 2392 2452 2504 2411 2224 1278 1387 1554 1695 1823 1851 1884 1806 1661 1481 1431 1441 1503 1665 1993 2117 2034 1969 1977 2078 2225 2202 2061 2065 2148 2246 2286 2310 2269 2364 2394 2273 1985 1839 1833 1931 1869 1904 2121 2342 2439 2472 2441 2351 2136 1985 1963 2041 2265 2484 2522 2318 2256 2291 2422 2519 2406 2203 2090 2126 2277 2423 2475 2436 1114 1203 1346 1489 1573 1550 1444 1357 1359 1437 1529 1500 1461 1578 1850 2094 2133 2147 2175 2140 1969 1796 1663 1707 1743 1851 1997 2087 2116 2009 1870 1817 1932 2068 2149 2136 1938 1881 2018 2219 2281 2250 2057 1977 1938 1938 1934 1903 2027 2350 2515 2536 2499 2549 2466 2221 1960 1917 1932 1947 2107 2221 2349 2401 1177 1197 1154 1177 1227 1264 1383 1583 1752 1825 1815 1666 1497 1503 1686 1947 2042 1972 1882 1681 1625 1736 1813 1880 1812 1743 1733 1726 1742 1832 1982 2188 2346 2375 2322 2202 2010 1844 1929 2012 2029 1913 1871 2016 2189 2193 2141 1992 1909 2142 2266 2355 2328 2150 1935 1941 1981 2071 1983 1942 1887 1940 1917 1922 1376 1358 1313 1391 1506 1632 1843 1933 1970 1981 1969 1858 1602 1451 1515 1631 1606 1563 1594 1843 2086 2188 2253 2235 2192 2119 2077 2081 2165 2294 2406 2387 2397 2404 2360 2235 1987 1889 1864 1886 1908 2093 2320 2482 2526 2463 2453 2216 1924 1899 1996 1986 1906 1947 2098 2251 2344 2333 2290 2113 2049 1956 2020 2167 1685 1702 1692 1764 1793 1834 1788 1682 1730 1843 1964 1967 1768 1599 1489 1559 1664 1914 2095 2185 2094 2027 1982 2135 2248 2298 2310 2314 2347 2300 2298 2232 2270 2375 2414 2268 2085 2022 1987 2162 2319 2492 2395 2343 2289 2400 2517 2389 2196 2001 1999 2009 2122 2340 2467 2533 2483 2493 2535 2453 2455 2410 2504 2404 1574 1651 1595 1613 1471 1391 1303 1334 1442 1623 1883 2001 1969 1908 1946 2023 2098 2085 1814 1664 1607 1624 1655 1760 1962 2117 2158 2146 2054 2008 2029 2058 2151 2316 2429 2350 2290 2259 2383 2460 2338 2139 1917 1927 1965 2075 2405 2487 2445 2297 2357 2440 2525 2468 2183 2203 2200 2272 2333 2408 2359 2269 2027 1900 1159 1181 1184 1219 1221 1246 1296 1338 1316 1436 1657 1878 1968 2056 2034 1894 1724 1567 1610 1751 1783 1797 1724 1654 1714 1780 1920 1857 1828 1850 1812 1897 2050 2217 2359 2389 2423 2408 2237 2032 1880 1931 2010 1982 1917 1932 2104 2415 2490 2554 2509 2365 2212 2224 2201 2186 2184 2171 1905 1989 1907 1831 1968 2173 1154 1266 1355 1420 1531 1651 1585 1519 1415 1355 1444 1590 1662 1639 1552 1538 1615 1918 2076 2157 2133 2037 1848 1724 1679 1690 1687 1753 1705 1763 1753 1788 1881 1983 2065 2084 2058 1879 1865 2031 2247 2395 2395 2357 2141 1935 1911 2099 2178 2227 2121 1900 1911 2160 2183 2197 2168 2182 1955 1964 2100 2228 2434 2459 1634 1677 1721 1774 1778 1807 1846 1766 1670 1493 1438 1429 1498 1497 1699 1955 2090 2097 2093 2116 2176 2171 2061 1854 1761 1733 1767 1798 1775 1829 1800 1814 1754 1797 1802 1830 1901 2135 2360 2442 2404 2327 2453 2421 2302 2040 1885 1862 1933 1894 1935 2054 2252 2342 2174 2126 2193 2338 2380 2401 2463 2436 2357 2300 1536 1575 1597 1604 1662 1758 1810 1836 1860 1802 1763 1761 1865 1962 2047 1963 1875 1814 1811 1918 2105 2266 2140 1994 1913 1879 1929 1969 2005 1973 2110 2059 2073 2096 2186 2295 2387 2376 2148 1992 1944 2000 2172 2446 2438 2202 2017 2038 2014 2185 2315 2457 2454 2447 2417 2402 2485 2466 2417 2343 2249 2127 2026 2042 1179 1203 1248 1296 1332 1466 1595 1739 1863 1887 1987 1978 1958 1824 1696 1628 1494 1584 1600 1796 2012 2144 2204 2149 2125 2120 2005 1948 2014 2006 2063 2341 2404 2374 2306 2159 1936 1836 1769 1905 1837 1884 2006 2290 2407 2418 2266 2294 2374 2465 2396 2273 2160 2061 2083 2111 2113 2148 2118 2009 1914 1896 1857 1910 1112 1101 1097 1169 1202 1227 1299 1419 1487 1572 1640 1584 1542 1455 1404 1447 1522 1496 1533 1645 1876 2101 2207 2251 2233 2242 1997 1968 2010 1998 2040 1960 1858 1839 1741 1798 1898 2061 2162 2121 2005 1864 1893 2110 2362 2443 2447 2483 2337 2155 1992 1890 1900 1873 1842 1840 1899 1861 1863 1856 1834 1831 1860 1849 1293 1298 1286 1301 1310 1326 1263 1243 1313 1302 1344 1383 1409 1497 1604 1617 1665 1546 1553 1549 1693 1850 1984 1989 1941 1826 1762 1672 2004 1735 1725 1796 1852 1972 2129 2218 2346 2365 2390 2309 2192 1950 1868 1953 2109 2178 2212 2060 1877 1841 1957 2019 2072 2032 1964 1927 1940 1931 1942 2012 2018 1974 1928 1850 1549 1559 1545 1603 1673 1596 1613 1532 1476 1475 1535 1563 1688 1796 1862 1867 1810 1753 1597 1487 1539 1613 1632 1600 1636 1719 1824 1963 2094 2213 2228 2282 2313 2294 2373 2319 2298 2284 2410 2401 2323 2063 1838 1828 1903 1905 1853 1910 2001 2173 2316 2327 2328 2353 2268 2205 2184 2223 2199 2248 2291 2218 2087 1965 1609 1644 1699 1753 1737 1779 1777 1774 1810 1798 1798 1888 1911 1973 2010 2029 1988 1912 1753 1707 1672 1658 1747 1892 2075 2173 2227 2191 2202 2174 2157 2123 2159 2115 2098 2054 2074 2149 2241 2370 2396 2204 2004 1938 1881 1928 2062 2270 2397 2430 2426 2449 2429 2462 2450 2431 2451 2403 2429 2401 2392 2404 2312 2244 1398 1422 1408 1402 1464 1579 1670 1786 1833 1888 1923 1942 1898 1968 1965 1969 2051 2111 2078 2064 2070 2112 2173 2159 2121 1940 1767 1748 1728 1714 1742 1762 1794 1796 1811 1852 2050 2099 2153 2304 2361 2351 2261 2255 2258 2373 2437 2407 2330 2191 2173 2163 2268 2260 2317 2302 2318 2297 2236 2184 2198 2240 2312 2367 1063 1099 1068 1127 1163 1276 1382 1497 1606 1716 1699 1719 1707 1689 1710 1672 1737 1826 1918 1916 1941 1873 1751 1638 1589 1648 1690 1743 1745 1783 1702 1698 1742 1710 1746 2059 2017 2025 2102 2124 2241 2343 2441 2404 2379 2324 2165 1997 1888 1869 1879 1886 1948 1953 1999 1978 1953 1933 1871 1814 1823 1859 1834 1940 1087 1164 1225 1203 1212 1195 1207 1261 1319 1405 1444 1439 1335 1364 1382 1437 1404 1456 1437 1493 1514 1543 1629 1829 1961 2051 2126 2127 2041 1963 1888 1850 1824 1783 1788 2087 2030 2037 2031 1806 1915 2042 2093 2045 1978 1840 1851 1805 1858 1885 1863 1836 1820 1848 1809 1816 1841 1881 1960 1980 1935 1946 1851 1849 1453 1522 1552 1546 1463 1325 1240 1218 1257 1278 1269 1349 1412 1546 1658 1697 1741 1733 1690 1766 1854 1999 2055 2154 2177 2163 2202 2212 2239 2162 2079 2001 1990 1969 1992 2012 2008 2040 1828 1784 1801 1792 1779 1801 1788 1911 1984 2117 2135 2183 2144 2110 2066 2069 2132 2147 2274 2321 2362 2353 2334 2345 2281 2230 1511 1586 1620 1644 1704 1570 1435 1358 1410 1430 1594 1757 1875 1942 2006 1969 1995 2005 2053 2070 2051 2070 1977 1945 1895 1975 2067 2140 2200 2192 2187 2141 2182 2185 2265 2278 2228 2256 2173 2067 2043 1963 2045 2037 2217 2253 2327 2395 2386 2359 2376 2402 2360 2382 2396 2365 2305 2214 2171 2157 2194 2243 2305 2295 1159 1212 1360 1516 1719 1684 1637 1671 1704 1778 1874 1774 1614 1555 1506 1518 1568 1645 1707 1751 1717 1671 1660 1671 1659 1705 1892 2036 2184 2171 2211 2283 2261 2235 2199 2249 2281 2262 2319 2346 2361 2335 2300 2333 2367 2363 2268 2221 2217 2180 2187 2206 2189 2112 2051 1922 1846 1830 1769 1793 1818 1920 2006 2101 974 990 1069 1245 1498 1660 1703 1746 1691 1571 1377 1283 1320 1391 1402 1414 1415 1453 1370 1430 1464 1480 1481 1508 1562 1604 1715 1883 2013 2061 2115 2086 1993 1887 1782 1753 1814 1894 1966 2079 2195 2202 2191 2214 2102 1991 1879 1836 1826 1819 1749 1749 1766 1748 1784 1799 1867 1899 1891 1847 1784 1735 1827 1872 1218 1101 1020 1086 1241 1333 1417 1332 1221 1199 1445 1629 1752 1784 1833 1713 1644 1514 1479 1492 1461 1545 1612 1563 1571 1577 1595 1640 1766 1801 1756 1696 1644 1675 1740 1796 1757 1683 1712 1743 1845 1842 1820 1776 1715 1777 1781 1843 1874 1886 1921 1978 1997 2097 2139 2262 2252 2290 2212 2039 1907 1779 1717 1798 1495 1405 1152 1045 1041 1102 1093 1214 1461 1509 1830 1781 1821 1848 1909 1969 1827 1723 1674 1665 1696 1734 1756 1740 1665 1581 1577 1567 1598 1589 1702 1895 2058 2177 2178 2197 2172 1974 1874 1743 1727 1723 1714 1836 1925 2107 2201 2235 2275 2306 2349 2321 2322 2322 2356 2288 2315 2302 2330 2173 1990 1842 1720 1710 1493 1541 1348 1273 1202 1280 1476 1423 1430 1472 1421 1347 1415 1590 1810 1942 1921 1846 1800 1819 1914 1964 2023 1952 1939 1873 1819 1819 1874 1999 2166 2191 2103 2074 2036 2175 2249 2267 2108 1947 1954 1952 2052 2178 2306 2340 2275 2264 2211 2203 2187 2215 2153 2087 2048 2042 2105 2201 2287 2320 2094 1897 1785 1710 1338 1514 1566 1562 1563 1621 1674 1441 1404 1131 1216 1242 1255 1412 1740 1909 1896 1942 1970 1985 2041 2016 2049 2068 2114 2089 2134 2131 2156 2017 1863 1719 1635 1649 1941 1922 1964 2222 2282 2266 2211 2265 2302 2224 2057 1948 1805 1855 1810 1863 1840 1813 1809 1760 1766 1787 1873 2041 2206 2318 2204 2028 1941 1907 1096 1313 1460 1529 1471 1382 1150 1100 1298 1398 1428 1324 1197 1325 1619 1818 1886 1910 1885 1906 1742 1732 1678 1774 1815 1848 1851 1733 1621 1577 1641 1730 1792 1932 1908 1900 1921 1944 2197 2269 2226 2121 1930 1766 1676 1652 1718 1725 1709 1726 1711 1734 1730 1699 1722 1686 1684 1893 2129 2267 2275 2211 2244 2284 888 1103 1128 1159 1042 1105 1242 1509 1631 1697 1585 1412 1223 1269 1558 1705 1717 1641 1519 1415 1373 1399 1435 1748 1780 1787 1528 1548 1778 1937 2055 2141 2103 1855 1892 1932 1881 1929 1993 1982 1865 1710 1696 1824 1949 2006 2075 2018 1941 1898 1855 1879 1910 1876 1842 1741 1699 1731 1954 2118 2192 2198 2110 1947 919 911 892 986 1140 1491 1655 1658 1664 1722 1704 1472 1249 1284 1348 1437 1367 1306 1385 1580 1708 1782 1782 1694 1752 1815 1936 2084 2111 2096 2030 2040 2130 1848 1889 1877 1906 1689 1718 1689 1685 1778 2083 2220 2253 2215 2288 2239 2214 2149 2156 2106 2118 2125 2052 1900 1720 1649 1721 1844 1865 1777 1644 1719 1122 1026 1161 1401 1540 1553 1463 1342 1469 1646 1737 1515 1327 1192 1235 1330 1448 1710 1871 1941 1905 1926 1971 2022 2039 2030 1989 1922 1756 1662 1669 1802 2027 2157 1971 1726 1572 1583 1632 1803 2109 2205 2162 2031 2041 2059 2149 2211 2264 2270 2245 2256 2265 2229 2207 2118 1935 1778 1661 1623 1676 1784 2054 2212 1386 1406 1494 1491 1335 1136 1088 1085 1278 1551 1702 1617 1482 1427 1537 1761 1825 1743 1525 1432 1444 1512 1574 1695 1659 1630 1522 1493 1466 1523 1507 1646 1913 2101 2030 1847 1777 1835 2015 2248 2088 1835 1738 1680 1746 1796 1950 2070 2109 2152 2127 2030 2103 2144 2211 2195 2197 2120 2033 2104 2156 2195 1993 1671 1404 1433 1289 1062 1011 998 999 1066 1136 1436 1652 1756 1742 1768 1791 1552 1282 1277 1366 1402 1421 1362 1349 1386 1423 1400 1472 1559 1635 1600 1512 1524 1834 2084 2104 2062 2082 2171 2125 1805 1563 1606 1679 1652 1593 1629 1712 1808 1872 1806 1791 1715 1733 1729 1833 1992 2104 2172 2200 2085 1914 1630 1616 1826 1063 968 873 929 1092 1208 1196 1073 1007 1201 1449 1561 1527 1383 1190 1347 1633 1816 1847 1831 1786 1650 1551 1516 1545 1630 1728 1818 1855 1710 1534 1449 1749 1976 2093 2117 2082 1768 1592 1649 1881 1978 1980 1895 1752 1641 1597 1590 1602 1606 1614 1659 1658 1663 1615 1626 1731 1731 1658 1554 1695 1928 2071 2165 805 847 1081 1318 1469 1514 1475 1273 1087 1057 1103 1135 1105 1362 1673 1749 1677 1631 1764 1826 1903 1842 1748 1680 1792 1911 1965 2047 1952 1860 1614 1479 1632 1783 1862 1707 1525 1547 1877 2105 2158 2195 1888 1896 1932 1759 1708 1730 1777 1955 2020 2106 2098 2023 1863 1727 1618 1627 1689 1924 2117 2171 2028 1997 1031 1258 1460 1438 1427 1515 1556 1540 1335 1249 1228 1389 1654 1682 1470 1273 1237 1259 1412 1680 1849 1912 1867 1873 1917 1974 1943 1946 2020 1952 1746 1528 1437 1535 1529 1555 1836 2102 2068 1936 1830 1852 1879 1893 1865 1885 2025 2077 2159 2132 2080 2091 2103 2177 2162 2057 2020 2058 2115 2133 2014 1769 1686 1718 1335 1289 1091 1014 1006 1167 1380 1500 1596 1604 1650 1578 1332 1163 1173 1293 1246 1188 1264 1533 1757 1891 1865 1892 1809 1718 1690 1722 1898 2038 1908 1711 1605 1640 1807 2032 2039 1750 1564 1546 1825 1810 1827 1822 1872 1874 2128 1985 1784 1637 1591 1635 1719 1879 2075 2116 2148 2105 1964 1756 1597 1537 1538 1565 987 796 786 844 871 897 1043 1231 1360 1279 1157 1035 1180 1426 1571 1553 1394 1262 1232 1539 1734 1788 1704 1562 1441 1397 1405 1481 1681 1932 2019 1970 1983 1988 2006 1745 1490 1507 1599 1623 1836 1830 1793 1837 1840 1821 1611 1544 1578 1705 1709 1601 1552 1639 1784 1866 1863 1743 1566 1519 1554 1591 1524 1489 734 975 1147 1210 1110 965 889 882 934 967 1167 1404 1628 1659 1732 1666 1450 1149 1281 1407 1482 1499 1354 1274 1334 1384 1421 1364 1418 1607 1860 1900 1852 1662 1480 1476 1710 1908 1909 1803 1630 1490 1833 1808 1802 1784 1797 1895 2055 2098 2040 1823 1647 1479 1592 1640 1525 1508 1503 1662 1721 1728 1613 1521 1263 1312 1374 1408 1386 1302 1173 1108 1239 1434 1565 1558 1523 1565 1664 1666 1438 1167 1174 1226 1217 1263 1338 1553 1764 1761 1714 1516 1410 1377 1427 1423 1367 1471 1789 1979 2008 2046 2075 1997 1843 1703 1801 1759 1777 1809 1816 1816 1950 2021 2109 2000 1737 1563 1509 1495 1529 1607 1836 1943 1962 1870 1626 1527 1074 988 1026 1178 1372 1467 1447 1439 1534 1522 1321 1277 1242 1381 1599 1651 1415 1189 1143 1200 1289 1540 1518 1553 1562 1822 1878 1882 1664 1512 1468 1495 1750 1923 1973 1857 1763 1793 1911 2043 2058 2005 1992 1760 1818 1747 1790 1532 1582 1773 2064 2033 1799 1615 1588 1556 1727 1927 2023 2082 2061 2046 1852 1697 668 682 751 899 1074 1282 1337 1333 1228 1154 1068 1031 1102 1290 1561 1641 1468 1307 1331 1554 1754 1722 1472 1542 1551 1573 1664 1824 1868 1788 1852 1935 1942 1736 1515 1383 1447 1524 1705 1926 1987 1980 1905 1727 1493 1480 1465 1527 1418 1616 1980 2041 1853 1745 1742 1883 2021 2037 1891 1914 1913 1990 2036 1943 923 896 758 733 828 957 1021 979 861 976 940 983 1003 1287 1517 1622 1631 1671 1706 1619 1319 1163 1491 1521 1533 1235 1342 1629 1817 1858 1835 1660 1457 1292 1372 1457 1410 1397 1476 1559 1608 1541 1418 1453 1583 1764 1788 1613 1478 1586 1899 2041 1947 1917 2027 2047 1836 1613 1510 1518 1558 1676 1780 1833 1207 1121 894 825 708 767 793 858 872 995 1031 979 931 1092 1339 1500 1518 1494 1214 1154 1345 1629 1769 1730 1652 1366 1235 1354 1479 1441 1397 1283 1398 1566 1678 1665 1574 1445 1381 1401 1355 1446 1642 1840 2027 2008 1967 1733 1422 1571 1904 1976 2020 2023 1862 1611 1409 1467 1536 1455 1423 1397 1423 1378 1189 1219 1079 929 865 856 941 1034 1142 1221 1225 1094 960 979 1023 1078 1060 1055 1354 1654 1667 1542 1552 1709 1751 1573 1325 1246 1265 1239 1329 1511 1791 1839 1912 1864 1763 1661 1597 1588 1742 1878 1996 1968 1888 1965 1962 1738 1403 1511 1743 1895 1818 1594 1381 1538 1805 1938 1923 1900 1781 1726 1624 1686 1038 1197 1146 1053 1035 1128 1222 1305 1377 1417 1432 1333 1212 1091 1041 1185 1382 1601 1500 1259 1124 1148 1172 1467 1788 1655 1444 1344 1355 1513 1766 1864 1852 1857 1858 1882 1922 1896 1896 1943 1946 1819 1683 1614 1664 1798 1963 1731 1440 1436 1571 1478 1368 1524 1835 1982 1848 1768 1818 1900 1964 1951 1921 1891 883 1151 1201 1239 1208 1303 1310 1318 1297 1316 1407 1449 1493 1472 1537 1549 1418 1095 1048 1212 1213 1145 1117 1317 1691 1768 1631 1606 1680 1842 1775 1610 1464 1461 1499 1700 1815 1860 1808 1748 1510 1423 1335 1373 1432 1699 1922 1720 1443 1359 1366 1523 1828 1965 1714 1459 1416 1312 1363 1486 1588 1659 1579 1487 728 1012 1157 1209 1129 1044 909 869 894 909 1073 1165 1235 1226 1167 977 986 1266 1482 1554 1501 1288 1086 1348 1624 1716 1672 1772 1676 1489 1315 1220 1263 1249 1291 1405 1431 1473 1376 1367 1319 1397 1394 1370 1355 1640 1902 1904 1699 1670 1793 1983 1658 1361 1426 1604 1624 1546 1424 1339 1300 1357 1342 1306 554 732 818 793 702 660 695 806 789 785 817 823 849 895 1002 1243 1484 1537 1555 1583 1628 1305 1075 1222 1563 1661 1638 1513 1313 1153 1262 1335 1387 1346 1269 1273 1233 1321 1299 1479 1596 1633 1620 1470 1297 1477 1792 1937 1890 1869 1663 1389 1410 1785 1936 1928 1922 1836 1662 1470 1392 1341 1438 1554
